X: 8
T: The Full Moon
R: reel
M: 2/4
L: 1/16
Z: 2010 John Chambers <jc:trillian.mit.edu>
B: Longman ed. "Twenty Four Country Dances", p.28 London 1770
K: G
|: G2d2 B2AG | ABcA GFED | EGFA GBAc | BGAF G2G,2 :|
|: gabg f2ed | efge d2cB | c2ec A2cA | B2dG F2ED |
   gabg f2ed | efge d2cB | c2ec B2dB | AcBA G2G,2 :|


%%sep 5 1 500

